src/assets/svgs/logo-light.svg

<svg width="105" height="35" viewBox="0 0 105 35" fill="none" xmlns="http://www.w3.org/2000/svg">
<path d="M62.3539 20.3054V0H65.2211L69.7089 10.5789V0H73.0996V20.3054H70.3571L65.8693 9.07477V20.3054H62.3539Z" fill="#F6F6F6"/>
<path d="M50.8643 20.3054V0H59.6653V2.8578H54.9781V8.24751H58.5932V11.1304H54.9781V17.4978H59.7152V20.3054H50.8643Z" fill="#F6F6F6"/>
<path d="M36.283 20.3054V0H41.394C42.275 0 43.0894 0.0752053 43.8374 0.225616C44.5853 0.376026 45.2419 0.643423 45.807 1.0278C46.3888 1.41219 46.8292 1.94698 47.1284 2.63218C47.4442 3.30067 47.6021 4.17807 47.6021 5.26437C47.6021 6.08327 47.4858 6.78518 47.2531 7.37011C47.0204 7.93833 46.688 8.38956 46.2558 8.72381C45.8236 9.05805 45.2918 9.28367 44.6601 9.40065C45.4413 9.51764 46.0979 9.78504 46.6298 10.2028C47.1617 10.6207 47.5606 11.1722 47.8265 11.8574C48.0925 12.5426 48.2254 13.3698 48.2254 14.3391C48.2254 15.3586 48.0925 16.2443 47.8265 16.9964C47.5772 17.7484 47.2032 18.3668 46.7046 18.8514C46.2059 19.3361 45.5909 19.7038 44.8596 19.9545C44.1283 20.1884 43.2806 20.3054 42.3165 20.3054H36.283ZM40.3968 17.3975H41.5436C42.5742 17.3975 43.2806 17.1384 43.6629 16.6204C44.0618 16.1023 44.2612 15.3252 44.2612 14.289C44.2612 13.4868 44.1698 12.8517 43.987 12.3838C43.8041 11.8991 43.505 11.5482 43.0894 11.3309C42.6905 11.0969 42.1503 10.98 41.4688 10.98H40.3968V17.3975ZM40.3968 8.19737H41.419C42.1337 8.19737 42.6739 8.0971 43.0396 7.89655C43.4052 7.67929 43.6546 7.36176 43.7875 6.94395C43.9371 6.50943 44.0119 5.98299 44.0119 5.36464C44.0119 4.74629 43.9039 4.25327 43.6878 3.8856C43.4883 3.50122 43.1725 3.22547 42.7404 3.05835C42.3248 2.89122 41.793 2.80766 41.1447 2.80766H40.3968V8.19737Z" fill="#F6F6F6"/>
<path d="M21.7016 20.3054V0H26.8127C27.6936 0 28.5081 0.0752053 29.2561 0.225616C30.004 0.376026 30.6606 0.643423 31.2257 1.0278C31.8074 1.41219 32.2479 1.94698 32.5471 2.63218C32.8629 3.30067 33.0208 4.17807 33.0208 5.26437C33.0208 6.08327 32.9044 6.78518 32.6718 7.37011C32.4391 7.93833 32.1066 8.38956 31.6745 8.72381C31.2423 9.05805 30.7104 9.28367 30.0788 9.40065C30.86 9.51764 31.5166 9.78504 32.0484 10.2028C32.5803 10.6207 32.9792 11.1722 33.2452 11.8574C33.5111 12.5426 33.6441 13.3698 33.6441 14.3391C33.6441 15.3586 33.5111 16.2443 33.2452 16.9964C32.9959 17.7484 32.6219 18.3668 32.1232 18.8514C31.6246 19.3361 31.0096 19.7038 30.2783 19.9545C29.5469 20.1884 28.6992 20.3054 27.7352 20.3054H21.7016ZM25.8154 17.3975H26.9623C27.9928 17.3975 28.6992 17.1384 29.0815 16.6204C29.4804 16.1023 29.6799 15.3252 29.6799 14.289C29.6799 13.4868 29.5885 12.8517 29.4056 12.3838C29.2228 11.8991 28.9236 11.5482 28.5081 11.3309C28.1092 11.0969 27.569 10.98 26.8875 10.98H25.8154V17.3975ZM25.8154 8.19737H26.8376C27.5524 8.19737 28.0926 8.0971 28.4582 7.89655C28.8239 7.67929 29.0732 7.36176 29.2062 6.94395C29.3558 6.50943 29.4306 5.98299 29.4306 5.36464C29.4306 4.74629 29.3225 4.25327 29.1065 3.8856C28.907 3.50122 28.5912 3.22547 28.159 3.05835C27.7435 2.89122 27.2116 2.80766 26.5634 2.80766H25.8154V8.19737Z" fill="#F6F6F6"/>
<path d="M14.9736 20.3054V0H19.0625V20.3054H14.9736Z" fill="#F6F6F6"/>
<path d="M3.79026 20.3055V4.06976H0V4.41809e-05L12.3349 0V4.06976H7.92899V20.3055H3.79026Z" fill="#F6F6F6"/>
<path d="M76 0.25C76 0.111929 76.1119 0 76.25 0H80.902C81.0401 0 81.152 0.111929 81.152 0.25V6.07929C81.152 6.21736 81.0401 6.32929 80.902 6.32929H76.25C76.1119 6.32929 76 6.21736 76 6.07929V0.25Z" fill="url(#paint0_linear_4532_164)"/>
<rect x="76" y="6.99069" width="11.1763" height="6.32929" rx="0.25" fill="url(#paint1_linear_4532_164)"/>
<rect x="81.9411" y="13.9807" width="11.1763" height="6.32929" rx="0.25" fill="url(#paint2_linear_4532_164)"/>
<rect x="93.8237" y="13.9807" width="11.1763" height="6.32929" rx="0.25" fill="url(#paint3_linear_4532_164)"/>
<rect x="87.8826" y="6.99066" width="11.1763" height="6.32929" rx="0.25" fill="url(#paint4_linear_4532_164)"/>
<rect x="81.9411" width="11.1763" height="6.32929" rx="0.25" fill="url(#paint5_linear_4532_164)"/>
<rect x="93.8237" width="11.1763" height="6.32929" rx="0.25" fill="url(#paint6_linear_4532_164)"/>
<rect x="76" y="13.9807" width="5.15204" height="6.32929" rx="0.25" fill="url(#paint7_linear_4532_164)"/>
<path d="M3 34.8233V25.1767H4.99341L6.88958 30.1105C7.01923 30.4246 7.13808 30.7388 7.24612 31.053C7.35417 31.3672 7.45681 31.701 7.55405 32.0545H7.61887C7.72692 31.701 7.82956 31.3672 7.9268 31.053C8.03484 30.7388 8.14289 30.4246 8.25093 30.1105L10.1633 25.1767H12.1405V34.8233H10.6333V29.9779C10.6333 29.6834 10.6441 29.3495 10.6657 28.9764C10.6873 28.6033 10.7143 28.2351 10.7467 27.8719C10.79 27.4988 10.8332 27.1649 10.8764 26.8704H10.8116L9.96883 29.271L8.12128 33.8954H6.98682L5.13927 29.271L4.31273 26.8704H4.24791C4.29112 27.1649 4.32894 27.4988 4.36135 27.8719C4.39377 28.2351 4.42078 28.6033 4.44239 28.9764C4.46399 29.3495 4.4748 29.6834 4.4748 29.9779V34.8233H3Z" fill="#B1B1B1"/>
<path d="M18.8878 34.8233L22.4208 25.1767H24.2845L27.8176 34.8233H26.0997L24.3656 29.5655C24.1819 29.0353 24.009 28.5052 23.847 27.975C23.6849 27.435 23.5228 26.89 23.3608 26.3402H23.2959C23.1447 26.89 22.9826 27.435 22.8097 27.975C22.6477 28.5052 22.4748 29.0353 22.2911 29.5655L20.5408 34.8233H18.8878ZM20.865 32.0545V30.891H25.808V32.0545H20.865Z" fill="#B1B1B1"/>
<path d="M37.5866 35C36.8411 35 36.1496 34.8773 35.5122 34.6318C34.8747 34.3765 34.3075 34.0231 33.8105 33.5714L34.7018 32.6141C35.08 32.9578 35.523 33.2278 36.0308 33.4242C36.5494 33.6205 37.0788 33.7187 37.619 33.7187C38.2673 33.7187 38.7643 33.5911 39.11 33.3358C39.4666 33.0707 39.6448 32.727 39.6448 32.3049C39.6448 32.0103 39.5692 31.7747 39.4179 31.5979C39.2775 31.4114 39.0776 31.2592 38.8183 31.1414C38.559 31.0137 38.2673 30.8861 37.9431 30.7585L36.4521 30.1694C36.1064 30.0319 35.7661 29.8552 35.4311 29.6392C35.107 29.4232 34.8369 29.1532 34.6208 28.8292C34.4047 28.5052 34.2967 28.1075 34.2967 27.6362C34.2967 27.1355 34.4425 26.6888 34.7342 26.296C35.0368 25.8935 35.4473 25.5793 35.9659 25.3535C36.4845 25.1178 37.0842 25 37.7649 25C38.4023 25 38.9966 25.108 39.5476 25.324C40.0986 25.54 40.5686 25.8247 40.9576 26.1782L40.0986 27.1355C39.7637 26.8704 39.3963 26.6642 38.9966 26.5169C38.6076 26.3598 38.197 26.2813 37.7649 26.2813C37.2138 26.2813 36.7709 26.3942 36.4359 26.62C36.101 26.8459 35.9335 27.1551 35.9335 27.5479C35.9335 27.8326 36.0146 28.0633 36.1766 28.2401C36.3495 28.4168 36.571 28.5641 36.8411 28.6819C37.1112 28.7997 37.3867 28.9175 37.6676 29.0353L39.1424 29.6097C39.5638 29.7668 39.9366 29.9583 40.2607 30.1841C40.5848 30.4001 40.8387 30.6701 41.0224 30.9941C41.2061 31.3181 41.2979 31.7158 41.2979 32.187C41.2979 32.7074 41.152 33.1836 40.8603 33.6156C40.5686 34.0378 40.1418 34.3765 39.58 34.6318C39.029 34.8773 38.3645 35 37.5866 35Z" fill="#B1B1B1"/>
<path d="M52.6759 35C51.7684 35 50.9688 34.7987 50.2774 34.3962C49.5859 33.9838 49.0403 33.3996 48.6405 32.6436C48.2515 31.8876 48.0571 30.9941 48.0571 29.9632C48.0571 28.9224 48.2515 28.0339 48.6405 27.2975C49.0403 26.5513 49.5859 25.9818 50.2774 25.5891C50.9688 25.1964 51.7684 25 52.6759 25C53.5835 25 54.383 25.1964 55.0745 25.5891C55.766 25.9818 56.3062 26.5513 56.6952 27.2975C57.0949 28.0339 57.2948 28.9224 57.2948 29.9632C57.2948 30.9941 57.0949 31.8876 56.6952 32.6436C56.3062 33.3996 55.766 33.9838 55.0745 34.3962C54.383 34.7987 53.5835 35 52.6759 35ZM52.6759 33.704C53.2702 33.704 53.7834 33.5518 54.2156 33.2474C54.6585 32.9431 54.9989 32.511 55.2366 31.9514C55.4851 31.3819 55.6093 30.7192 55.6093 29.9632C55.6093 29.1973 55.4851 28.5444 55.2366 28.0044C54.9989 27.4546 54.6585 27.0324 54.2156 26.7379C53.7834 26.4335 53.2702 26.2813 52.6759 26.2813C52.0817 26.2813 51.5631 26.4335 51.1201 26.7379C50.6771 27.0324 50.3314 27.4546 50.0829 28.0044C49.8452 28.5444 49.7263 29.1973 49.7263 29.9632C49.7263 30.7192 49.8452 31.3819 50.0829 31.9514C50.3314 32.511 50.6771 32.9431 51.1201 33.2474C51.5631 33.5518 52.0817 33.704 52.6759 33.704Z" fill="#B1B1B1"/>
<path d="M64.83 34.8233V25.1767H66.6127L70.0809 30.8174C70.2754 31.1414 70.4645 31.485 70.6481 31.8483C70.8318 32.2116 71.0101 32.5798 71.1829 32.9529H71.2478C71.2046 32.4423 71.1613 31.917 71.1181 31.377C71.0749 30.8272 71.0533 30.297 71.0533 29.7865V25.1767H72.5929V34.8233H70.8264L67.3582 29.1679C67.1529 28.8439 66.953 28.5002 66.7586 28.137C66.5749 27.7737 66.3966 27.4104 66.2237 27.0471H66.1589C66.2129 27.538 66.2615 28.0535 66.3048 28.5935C66.3588 29.1335 66.3858 29.6686 66.3858 30.1988V34.8233H64.83Z" fill="#B1B1B1"/>
<path d="M80.7504 34.8233V25.1767H84.2024C84.9371 25.1767 85.5908 25.2651 86.1634 25.4418C86.736 25.6087 87.1898 25.8984 87.5247 26.3108C87.8597 26.7231 88.0272 27.273 88.0272 27.9602C88.0272 28.6279 87.8597 29.1777 87.5247 29.6097C87.1898 30.0417 86.736 30.3657 86.1634 30.5817C85.5908 30.7977 84.9371 30.9057 84.2024 30.9057H82.3711V34.8233H80.7504ZM82.3711 29.7128H84.0079C84.7966 29.7128 85.3963 29.5704 85.8068 29.2857C86.2174 28.9912 86.4227 28.5493 86.4227 27.9602C86.4227 27.3711 86.2174 26.9588 85.8068 26.7231C85.3963 26.4777 84.7966 26.3549 84.0079 26.3549H82.3711V29.7128ZM86.5686 34.8233L83.8945 30.5081L85.11 29.6686L88.3837 34.8233H86.5686Z" fill="#B1B1B1"/>
<path d="M97.1866 34.8233V31.1561L94.0101 25.1767H95.7281L96.9922 27.7688C97.1542 28.1321 97.3109 28.4855 97.4622 28.8292C97.6242 29.163 97.7971 29.5115 97.9808 29.8748H98.0456C98.2185 29.5115 98.3913 29.163 98.5642 28.8292C98.7371 28.4855 98.8991 28.1321 99.0504 27.7688L100.315 25.1767H102L98.8073 31.1561V34.8233H97.1866Z" fill="#B1B1B1"/>
<defs>
<linearGradient id="paint0_linear_4532_164" x1="78.576" y1="0" x2="78.576" y2="6.32929" gradientUnits="userSpaceOnUse">
<stop stop-color="#BA0800"/>
<stop offset="1" stop-color="#A80A03"/>
</linearGradient>
<linearGradient id="paint1_linear_4532_164" x1="81.5882" y1="6.99069" x2="81.5882" y2="13.32" gradientUnits="userSpaceOnUse">
<stop stop-color="#BA0800"/>
<stop offset="1" stop-color="#A80A03"/>
</linearGradient>
<linearGradient id="paint2_linear_4532_164" x1="87.5293" y1="13.9807" x2="87.5293" y2="20.31" gradientUnits="userSpaceOnUse">
<stop stop-color="#BA0800"/>
<stop offset="1" stop-color="#A80A03"/>
</linearGradient>
<linearGradient id="paint3_linear_4532_164" x1="99.4118" y1="13.9807" x2="99.4118" y2="20.31" gradientUnits="userSpaceOnUse">
<stop stop-color="#BA0800"/>
<stop offset="1" stop-color="#A80A03"/>
</linearGradient>
<linearGradient id="paint4_linear_4532_164" x1="93.4708" y1="6.99066" x2="93.4708" y2="13.32" gradientUnits="userSpaceOnUse">
<stop stop-color="#BA0800"/>
<stop offset="1" stop-color="#A80A03"/>
</linearGradient>
<linearGradient id="paint5_linear_4532_164" x1="87.5293" y1="0" x2="87.5293" y2="6.32929" gradientUnits="userSpaceOnUse">
<stop stop-color="#BA0800"/>
<stop offset="1" stop-color="#A80A03"/>
</linearGradient>
<linearGradient id="paint6_linear_4532_164" x1="99.4118" y1="0" x2="99.4118" y2="6.32929" gradientUnits="userSpaceOnUse">
<stop stop-color="#BA0800"/>
<stop offset="1" stop-color="#A80A03"/>
</linearGradient>
<linearGradient id="paint7_linear_4532_164" x1="78.576" y1="13.9807" x2="78.576" y2="20.31" gradientUnits="userSpaceOnUse">
<stop stop-color="#BA0800"/>
<stop offset="1" stop-color="#A80A03"/>
</linearGradient>
</defs>
</svg>

<svg width="105" height="35" fill="none" xmlns="http://www.w3.org/2000/svg"><path d="M62.354 20.305V0h2.867l4.488 10.579V0h3.39v20.305h-2.742L65.87 9.075v11.23h-3.515ZM50.864 20.305V0h8.801v2.858h-4.687v5.39h3.615v2.882h-3.615v6.368h4.737v2.807h-8.85ZM36.283 20.305V0h5.111c.881 0 1.695.075 2.443.226.748.15 1.405.417 1.97.802.582.384 1.022.919 1.321 1.604.316.669.474 1.546.474 2.632 0 .82-.116 1.521-.349 2.106-.233.568-.565 1.02-.997 1.354-.432.334-.964.56-1.596.677.781.117 1.438.384 1.97.802.532.418.93.97 1.197 1.654.266.686.398 1.513.398 2.482 0 1.02-.133 1.905-.398 2.657-.25.752-.624 1.37-1.122 1.855-.5.485-1.114.853-1.845 1.104-.732.233-1.58.35-2.544.35h-6.033Zm4.114-2.907h1.147c1.03 0 1.737-.26 2.119-.778.399-.518.598-1.295.598-2.331 0-.802-.091-1.437-.274-1.905-.183-.485-.482-.836-.898-1.053-.398-.234-.939-.351-1.62-.351h-1.072v6.418Zm0-9.2h1.022c.715 0 1.255-.1 1.62-.301a1.65 1.65 0 0 0 .748-.953c.15-.435.225-.961.225-1.58 0-.618-.108-1.11-.324-1.478-.2-.385-.516-.66-.948-.828-.415-.167-.947-.25-1.595-.25h-.748v5.39ZM21.702 20.305V0h5.11c.882 0 1.696.075 2.444.226.748.15 1.405.417 1.97.802.581.384 1.022.919 1.321 1.604.316.669.474 1.546.474 2.632 0 .82-.117 1.521-.35 2.106-.232.568-.564 1.02-.997 1.354-.432.334-.964.56-1.595.677.781.117 1.438.384 1.97.802.531.418.93.97 1.196 1.654.266.686.4 1.513.4 2.482 0 1.02-.134 1.905-.4 2.657-.25.752-.623 1.37-1.122 1.855-.498.485-1.113.853-1.845 1.104-.731.233-1.579.35-2.543.35h-6.033Zm4.113-2.907h1.147c1.03 0 1.737-.26 2.12-.778.398-.518.598-1.295.598-2.331 0-.802-.091-1.437-.274-1.905-.183-.485-.482-.836-.898-1.053-.399-.234-.939-.351-1.62-.351h-1.073v6.418Zm0-9.2h1.023c.714 0 1.255-.1 1.62-.301a1.65 1.65 0 0 0 .748-.953c.15-.435.225-.961.225-1.58 0-.618-.108-1.11-.325-1.478-.199-.385-.515-.66-.947-.828-.415-.167-.947-.25-1.596-.25h-.748v5.39ZM14.974 20.305V0h4.088v20.305h-4.088ZM3.79 20.305V4.07H0V0h12.335v4.07H7.929v16.235H3.79Z" fill="#F6F6F6"/><path d="M76 .25a.25.25 0 0 1 .25-.25h4.652a.25.25 0 0 1 .25.25v5.83a.25.25 0 0 1-.25.25H76.25a.25.25 0 0 1-.25-.25V.25Z" fill="url(#a)"/><rect x="76" y="6.991" width="11.176" height="6.329" rx=".25" fill="url(#b)"/><rect x="81.941" y="13.981" width="11.176" height="6.329" rx=".25" fill="url(#c)"/><rect x="93.824" y="13.981" width="11.176" height="6.329" rx=".25" fill="url(#d)"/><rect x="87.883" y="6.991" width="11.176" height="6.329" rx=".25" fill="url(#e)"/><rect x="81.941" width="11.176" height="6.329" rx=".25" fill="url(#f)"/><rect x="93.824" width="11.176" height="6.329" rx=".25" fill="url(#g)"/><rect x="76" y="13.981" width="5.152" height="6.329" rx=".25" fill="url(#h)"/><path d="M3 34.823v-9.646h1.993L6.89 30.11a16.72 16.72 0 0 1 .664 1.944h.065c.108-.353.21-.687.308-1.001l.324-.943 1.912-4.933h1.977v9.646h-1.507v-4.845c0-.295.011-.629.033-1.002.021-.373.048-.74.08-1.104.044-.373.087-.707.13-1.002h-.064l-.843 2.401-1.848 4.624H6.987l-1.848-4.624-.826-2.4h-.065c.043.294.08.628.113 1 .033.364.06.732.081 1.105.022.373.033.707.033 1.002v4.845H3ZM18.888 34.823l3.533-9.646h1.864l3.533 9.646H26.1l-1.734-5.258a45.22 45.22 0 0 1-.519-1.59c-.162-.54-.324-1.085-.486-1.635h-.065c-.151.55-.313 1.095-.486 1.635a45.22 45.22 0 0 1-.519 1.59l-1.75 5.258h-1.653Zm1.977-2.769v-1.163h4.943v1.163h-4.943ZM37.587 35a5.723 5.723 0 0 1-2.075-.368 5.606 5.606 0 0 1-1.702-1.06l.892-.958c.378.344.821.614 1.329.81a4.453 4.453 0 0 0 1.588.295c.648 0 1.145-.128 1.491-.383.357-.265.535-.609.535-1.031 0-.295-.076-.53-.227-.707a1.514 1.514 0 0 0-.6-.457c-.259-.127-.55-.255-.875-.382l-1.49-.59a5.926 5.926 0 0 1-1.022-.53 2.893 2.893 0 0 1-.81-.81c-.216-.324-.324-.721-.324-1.193 0-.5.146-.947.437-1.34.303-.402.713-.717 1.232-.942.518-.236 1.118-.354 1.799-.354.637 0 1.232.108 1.783.324.55.216 1.02.5 1.41.854l-.86.957a3.985 3.985 0 0 0-1.101-.618 3.258 3.258 0 0 0-1.232-.236c-.551 0-.994.113-1.33.339-.334.226-.502.535-.502.928 0 .285.082.515.244.692.172.177.394.324.664.442s.546.236.827.353l1.474.575c.422.157.795.348 1.119.574.324.216.578.486.761.81.184.324.276.722.276 1.193 0 .52-.146.997-.438 1.429-.291.422-.718.76-1.28 1.016-.551.245-1.215.368-1.993.368ZM52.676 35c-.908 0-1.707-.201-2.399-.604-.691-.412-1.237-.996-1.636-1.752-.39-.756-.584-1.65-.584-2.68 0-1.042.194-1.93.584-2.666.4-.747.945-1.316 1.636-1.709.692-.393 1.491-.589 2.399-.589.907 0 1.707.196 2.398.59.692.392 1.232.961 1.621 1.707.4.737.6 1.625.6 2.666 0 1.031-.2 1.925-.6 2.68-.389.757-.929 1.34-1.62 1.753-.692.403-1.492.604-2.4.604Zm0-1.296c.594 0 1.107-.152 1.54-.457.442-.304.783-.736 1.02-1.296.25-.57.373-1.232.373-1.988 0-.766-.124-1.419-.372-1.959-.238-.55-.579-.972-1.021-1.266-.433-.305-.946-.457-1.54-.457-.594 0-1.113.152-1.556.457-.443.294-.789.717-1.037 1.266-.238.54-.357 1.193-.357 1.96 0 .755.12 1.418.357 1.987.248.56.594.992 1.037 1.296.443.305.962.457 1.556.457ZM64.83 34.823v-9.646h1.783l3.468 5.64c.194.324.383.668.567 1.031.184.364.362.732.535 1.105h.065c-.043-.51-.087-1.036-.13-1.576-.043-.55-.065-1.08-.065-1.59v-4.61h1.54v9.646h-1.767l-3.468-5.655a16.275 16.275 0 0 1-.6-1.031 50.679 50.679 0 0 1-.534-1.09h-.065c.054.491.102 1.006.146 1.546.054.54.08 1.076.08 1.606v4.624H64.83ZM80.75 34.823v-9.646h3.452c.735 0 1.389.088 1.961.265.573.167 1.027.456 1.362.869.335.412.502.962.502 1.65 0 .667-.167 1.217-.502 1.649-.335.432-.789.756-1.362.972-.572.216-1.226.324-1.96.324H82.37v3.917h-1.62Zm1.621-5.11h1.637c.789 0 1.388-.143 1.799-.427.41-.295.616-.737.616-1.326 0-.589-.206-1.001-.616-1.237-.41-.245-1.01-.368-1.8-.368h-1.636v3.358Zm4.198 5.11-2.675-4.315 1.216-.84 3.274 5.155h-1.815ZM97.187 34.823v-3.667l-3.177-5.98h1.718l1.264 2.593c.162.363.319.716.47 1.06.162.334.335.683.519 1.046h.065c.172-.363.345-.712.518-1.046.173-.344.335-.697.486-1.06l1.265-2.592H102l-3.193 5.98v3.666h-1.62Z" fill="#B1B1B1"/><defs><linearGradient id="a" x1="78.576" y1="0" x2="78.576" y2="6.329" gradientUnits="userSpaceOnUse"><stop stop-color="#BA0800"/><stop offset="1" stop-color="#A80A03"/></linearGradient><linearGradient id="b" x1="81.588" y1="6.991" x2="81.588" y2="13.32" gradientUnits="userSpaceOnUse"><stop stop-color="#BA0800"/><stop offset="1" stop-color="#A80A03"/></linearGradient><linearGradient id="c" x1="87.529" y1="13.981" x2="87.529" y2="20.31" gradientUnits="userSpaceOnUse"><stop stop-color="#BA0800"/><stop offset="1" stop-color="#A80A03"/></linearGradient><linearGradient id="d" x1="99.412" y1="13.981" x2="99.412" y2="20.31" gradientUnits="userSpaceOnUse"><stop stop-color="#BA0800"/><stop offset="1" stop-color="#A80A03"/></linearGradient><linearGradient id="e" x1="93.471" y1="6.991" x2="93.471" y2="13.32" gradientUnits="userSpaceOnUse"><stop stop-color="#BA0800"/><stop offset="1" stop-color="#A80A03"/></linearGradient><linearGradient id="f" x1="87.529" y1="0" x2="87.529" y2="6.329" gradientUnits="userSpaceOnUse"><stop stop-color="#BA0800"/><stop offset="1" stop-color="#A80A03"/></linearGradient><linearGradient id="g" x1="99.412" y1="0" x2="99.412" y2="6.329" gradientUnits="userSpaceOnUse"><stop stop-color="#BA0800"/><stop offset="1" stop-color="#A80A03"/></linearGradient><linearGradient id="h" x1="78.576" y1="13.981" x2="78.576" y2="20.31" gradientUnits="userSpaceOnUse"><stop stop-color="#BA0800"/><stop offset="1" stop-color="#A80A03"/></linearGradient></defs></svg>
